src/assets/icon-website-development.svg

<svg width="90" height="90" viewBox="0 0 90 90" fill="none" xmlns="http://www.w3.org/2000/svg">
<circle cx="45" cy="45" r="45" fill="#71ACFF"/>
<path fill-rule="evenodd" clip-rule="evenodd" d="M48.625 36.8125C48.1774 36.8125 47.7482 36.9903 47.4318 37.3068C47.1153 37.6232 46.9375 38.0524 46.9375 38.5V52C46.9375 52.4476 47.1153 52.8768 47.4318 53.1932C47.7482 53.5097 48.1774 53.6875 48.625 53.6875H55.375C55.8226 53.6875 56.2518 53.5097 56.5682 53.1932C56.8847 52.8768 57.0625 52.4476 57.0625 52V38.5C57.0625 38.0524 56.8847 37.6232 56.5682 37.3068C56.2518 36.9903 55.8226 36.8125 55.375 36.8125H48.625ZM53.6875 40.1875H50.3125V50.3125H53.6875V40.1875Z" fill="black"/>
<path d="M35.125 36.8125C34.6774 36.8125 34.2482 36.9903 33.9318 37.3068C33.6153 37.6232 33.4375 38.0524 33.4375 38.5C33.4375 38.9476 33.6153 39.3768 33.9318 39.6932C34.2482 40.0097 34.6774 40.1875 35.125 40.1875H41.875C42.3226 40.1875 42.7518 40.0097 43.0682 39.6932C43.3847 39.3768 43.5625 38.9476 43.5625 38.5C43.5625 38.0524 43.3847 37.6232 43.0682 37.3068C42.7518 36.9903 42.3226 36.8125 41.875 36.8125H35.125ZM35.125 43.5625C34.6774 43.5625 34.2482 43.7403 33.9318 44.0568C33.6153 44.3732 33.4375 44.8024 33.4375 45.25C33.4375 45.6976 33.6153 46.1268 33.9318 46.4432C34.2482 46.7597 34.6774 46.9375 35.125 46.9375H41.875C42.3226 46.9375 42.7518 46.7597 43.0682 46.4432C43.3847 46.1268 43.5625 45.6976 43.5625 45.25C43.5625 44.8024 43.3847 44.3732 43.0682 44.0568C42.7518 43.7403 42.3226 43.5625 41.875 43.5625H35.125ZM33.4375 52C33.4375 51.5524 33.6153 51.1232 33.9318 50.8068C34.2482 50.4903 34.6774 50.3125 35.125 50.3125H41.875C42.3226 50.3125 42.7518 50.4903 43.0682 50.8068C43.3847 51.1232 43.5625 51.5524 43.5625 52C43.5625 52.4476 43.3847 52.8768 43.0682 53.1932C42.7518 53.5097 42.3226 53.6875 41.875 53.6875H35.125C34.6774 53.6875 34.2482 53.5097 33.9318 53.1932C33.6153 52.8768 33.4375 52.4476 33.4375 52Z" fill="black"/>
<path fill-rule="evenodd" clip-rule="evenodd" d="M31.75 30.0625C30.4073 30.0625 29.1197 30.5959 28.1703 31.5453C27.2209 32.4947 26.6875 33.7823 26.6875 35.125V55.375C26.6875 56.7177 27.2209 58.0053 28.1703 58.9547C29.1197 59.9041 30.4073 60.4375 31.75 60.4375H58.75C60.0927 60.4375 61.3803 59.9041 62.3297 58.9547C63.2791 58.0053 63.8125 56.7177 63.8125 55.375V35.125C63.8125 33.7823 63.2791 32.4947 62.3297 31.5453C61.3803 30.5959 60.0927 30.0625 58.75 30.0625H31.75ZM58.75 33.4375H31.75C31.3024 33.4375 30.8732 33.6153 30.5568 33.9318C30.2403 34.2482 30.0625 34.6774 30.0625 35.125V55.375C30.0625 55.8226 30.2403 56.2518 30.5568 56.5682C30.8732 56.8847 31.3024 57.0625 31.75 57.0625H58.75C59.1976 57.0625 59.6268 56.8847 59.9432 56.5682C60.2597 56.2518 60.4375 55.8226 60.4375 55.375V35.125C60.4375 34.6774 60.2597 34.2482 59.9432 33.9318C59.6268 33.6153 59.1976 33.4375 58.75 33.4375Z" fill="black"/>
</svg>

<svg width="90" height="90" fill="none" xmlns="http://www.w3.org/2000/svg"><circle cx="45" cy="45" r="45" fill="#71ACFF"/><path fill-rule="evenodd" clip-rule="evenodd" d="M48.625 36.813a1.687 1.687 0 0 0-1.688 1.687V52a1.687 1.687 0 0 0 1.688 1.688h6.75A1.687 1.687 0 0 0 57.063 52V38.5a1.687 1.687 0 0 0-1.688-1.688h-6.75Zm5.063 3.374h-3.376v10.126h3.376V40.187Z" fill="#000"/><path d="M35.125 36.813a1.687 1.687 0 1 0 0 3.374h6.75a1.687 1.687 0 1 0 0-3.374h-6.75Zm0 6.75a1.687 1.687 0 1 0 0 3.374h6.75a1.687 1.687 0 1 0 0-3.374h-6.75ZM33.437 52a1.687 1.687 0 0 1 1.688-1.688h6.75a1.687 1.687 0 1 1 0 3.376h-6.75A1.687 1.687 0 0 1 33.437 52Z" fill="#000"/><path fill-rule="evenodd" clip-rule="evenodd" d="M31.75 30.063a5.062 5.062 0 0 0-5.063 5.062v20.25a5.062 5.062 0 0 0 5.063 5.063h27a5.062 5.062 0 0 0 5.063-5.063v-20.25a5.062 5.062 0 0 0-5.063-5.063h-27Zm27 3.375h-27a1.687 1.687 0 0 0-1.688 1.687v20.25a1.687 1.687 0 0 0 1.688 1.688h27a1.687 1.687 0 0 0 1.688-1.688v-20.25a1.687 1.687 0 0 0-1.688-1.688Z" fill="#000"/></svg>
